packages/kaspersky-hexa-ui-icons/src/iconsSVGs/40/UploadFull.svg

<svg xmlns="http://www.w3.org/2000/svg" width="40" height="40" fill="none" viewBox="0 0 40 40"><path fill="#000" fill-rule="evenodd" d="M11.8331 14.1613C12.4265 10.5309 15.3664 7 20 7s7.5735 3.5309 8.1669 7.1613a1 1 0 0 0 .9869.8387C32.9167 15 36 18.1156 36 22s-3.0833 7-6.8462 7H23v2h6.1538C34.0577 31 38 26.9522 38 22c0-4.6715-3.5081-8.5382-8.0221-8.9616C28.9789 8.9402 25.4722 5 20 5s-8.9789 3.9402-9.9779 8.0384C5.5081 13.4618 2 17.3285 2 22c0 4.9522 3.9423 9 8.8462 9H17v-2h-6.1538C7.0833 29 4 25.8844 4 22s3.0833-7 6.8462-7a1 1 0 0 0 .9869-.8387M20 16a1 1 0 0 1 .7863.3822l4 5.0909c.3412.4343.2658 1.0629-.1685 1.4041s-1.0629.2658-1.4041-.1685L21 19.8913V35c0 .5523-.4477 1-1 1s-1-.4477-1-1V19.8913l-2.2137 2.8174c-.3412.4343-.9698.5097-1.4041.1685s-.5097-.9698-.1685-1.4041l4-5.0909A1 1 0 0 1 20 16"/></svg>

<svg width="40" height="40" viewBox="0 0 40 40" fill="none" xmlns="http://www.w3.org/2000/svg">
<path d="M11.8331 14.1613C12.4265 10.5309 15.3664 7 20 7C24.6336 7 27.5735 10.5309 28.1669 14.1613C28.246 14.6449 28.6638 15 29.1538 15C32.9167 15 36 18.1156 36 22C36 25.8844 32.9167 29 29.1538 29H23V31H29.1538C34.0577 31 38 26.9522 38 22C38 17.3285 34.4919 13.4618 29.9779 13.0384C28.9789 8.94017 25.4722 5 20 5C14.5278 5 11.0211 8.94017 10.0221 13.0384C5.50811 13.4618 2 17.3285 2 22C2 26.9522 5.94234 31 10.8462 31H17V29H10.8462C7.08334 29 4 25.8844 4 22C4 18.1156 7.08334 15 10.8462 15C11.3362 15 11.754 14.6449 11.8331 14.1613Z" fill="black"/>
<path d="M20.7863 16.3822C20.5967 16.1409 20.3069 16 20 16C19.6931 16 19.4033 16.1409 19.2137 16.3822L15.2137 21.4731C14.8725 21.9074 14.9479 22.536 15.3822 22.8772C15.8165 23.2184 16.4451 23.143 16.7863 22.7087L19 19.8913V35C19 35.5523 19.4477 36 20 36C20.5523 36 21 35.5523 21 35V19.8913L23.2137 22.7087C23.5549 23.143 24.1835 23.2184 24.6178 22.8772C25.0521 22.536 25.1275 21.9074 24.7863 21.4731L20.7863 16.3822Z" fill="black"/>
</svg>
